X: 27073
T: Miss Johnson
R: reel
M: 4/4
K: Gmajor
BcdB G2 BG|DGBG dGBG|BcdB GBAG|FGAB cAdc|
BcdB G2 BG|DGBG dGBc|dBcA BGAF|DEFG ABcA:|
|:Bcde dcBc|dBgB aBgB|Bcde dcBc|Aaaf gfed|
Bcde dcBc|dBgB aBgB|f2 ef defg|adfa gfed:|

